dest/img/img-dino.svg

<svg fill="none" height="145" viewBox="0 0 163 145" width="163" xmlns="http://www.w3.org/2000/svg"><g fill="#50af42"><path d="m54.5328 91.6987c-.3882.055-.7736.1247-1.0824.3644-.4288.3379-.564.9441-.4526 1.4752.0966.5337.3954 1.0002.7063 1.4492 1.0311 1.4669 2.2684 2.8047 3.6541 3.9471-.1252-.0998 3.592-6.0395 3.1954-7.1314-.5647-1.5973-4.8146-.2922-6.0208-.1045z"/><path d="m44.9851 102.139c-.303-.236-.6235-.485-1.0008-.539-.5362-.086-1.0742.241-1.3926.681-.3183.44-.4495.985-.5685 1.512-.3693 1.766-.5027 3.566-.391 5.368-.0147-.166 6.863-1.503 7.3934-2.548.7666-1.517-3.0789-3.73-4.0405-4.474z"/><path d="m33.6303 105.893c-.121-.33-.2595-.672-.4979-.889-.3312-.308-.8069-.314-1.1682-.11-.3613.203-.6486.561-.9036.929-.8499 1.225-1.5517 2.592-2.0811 4.066.0526-.132 5.1528 1.992 5.858 1.405 1.0288-.829-.8212-4.368-1.2072-5.401z"/><path d="m22.656 107.436c-.121-.33-.2595-.673-.4979-.89-.3312-.307-.8069-.313-1.1682-.11s-.6486.561-.9036.929c-.85 1.226-1.5518 2.593-2.0812 4.067.0527-.132 5.1528 1.991 5.8581 1.405 1.0436-.832-.8064-4.371-1.2072-5.401z"/><path d="m60.8825 91.5905s-8.8374 12.1645-16.8412 14.6385c-11.4246 3.538-24.6525 2.104-26.3138 1.808-1.6586-.282-4.3973 2.097-.2285 4.405 5.3569 2.95 16.1586 8.405 29.6028 5.451 12.0762-2.645 20.6836-8.551 20.6836-8.551z"/></g><g fill="#21bf73"><path d="m112.983 8.92854c-1.461-.62373-3.053-.96322-4.639-1.01299-.399-.00436-.828-.00337-1.182-.18422s-.633-.62038-.469-.98678c.11-.23439.346-.36896.585-.4887 1.74-.78963 3.753-.66406 5.65-.33375 3.082.52933 3.456 4.4578.055 3.00644z"/><path d="m121.867 11.7454c1.439.6735 2.76 1.6286 3.844 2.7951.267.2886.554.6042.917.7527.379.1458.883.0546 1.046-.3118.111-.2344.045-.5134-.03-.76-.561-1.8278-2.01-3.2344-3.498-4.43493-2.437-1.96262-5.627.37553-2.279 1.95893z"/><path d="m117.642 67.8285c-2.229 8.2425-4.602 16.7868-10.67 23.1061-2.41 2.5032-5.538 4.677-9.3155 5.0392-2.0309.1992-4.1113-.1286-6.1201-.653-5.1735-1.345-10.3053-4.3204-12.4161-8.7919-.9417-1.9884-1.2216-4.1272-1.2806-6.2294-.043-1.8449.0703-3.6721.3722-5.4721.4672-2.9171 1.3844-5.7166 2.2841-8.5282 2.672-8.2463 5.344-16.4926 8.5886-24.5362 1.8943-4.6759 4.434-10.8618 6.5815-17.0993.5214-1.5183 4.2752 2.4721 5.9679 2.181 1.485-.2535 3.066-.0649 4.598.1937 3.674.5904 7.355 1.4706 10.648 3.1711 3.194 1.6574 5.325 3.8744 7.052 6.7313 1.851 3.0334.592 5.2977-.249 8.4355-2.026 7.5015-4.043 14.9708-6.041 22.4522z"/></g><path d="m99.3789 36.2097c-.18-.6564-.1646-1.5014.4098-1.8809.4783-.3163 1.1173-.1716 1.6693.004 4.139 1.3791 7.675 4.1687 11.723 5.8092 2.148.8668 4.417 1.3901 6.671 1.9161 1.262.2921 3.135.489 4.702.9403-.231.838-.534 1.7042-.791 2.654-.513 1.8997-1.015 3.7818-1.528 5.6815-1.519.1524-3.047-.3366-4.481-.9038-5.889-2.3332-11.291-5.8721-15.763-10.3603-1.12-1.114-2.1996-2.3425-2.6121-3.8601z" fill="#1ca362"/><path d="m123.783 15.8999c-1.393-2.0292-4.093-3.0717-6.5-2.4982-1.336.3183-2.546 1.0734-3.533 2.0482-.78.7689-1.453 1.7022-1.674 2.7679-.146.7155-.086 1.4701.075 2.1912.444 1.9408 1.662 3.6801 3.329 4.7716 2.5 1.6299 7.122 2.1254 8.638-1.0887 1.058-2.2738 1.099-6.1089-.335-8.192z" fill="#1ca362"/><path d="m100.993 13.1501c2.023-2.6935 6.105-4.50411 9.742-3.95277 2.298.34949 4.437 1.84567 5.438 3.82327.713 1.402.721 3.2226.228 4.9807 3.558 2.066 5.973 3.9868 5.973 3.9868s11.273 8.1415 17.996 12.9724c.759-.6274 2.187-.6869 4.657.3513 1.176.4915 1.962 1.2831 2.495 2.1972 1.017 1.7297-2.607 11.1435-4.064 11.8054-2.757 1.2645-29.062-5.7637-35.611-8.3602-6.548-2.5965-13.2479-6.4518-13.206-11.6345.0189-3.4484 4.1313-13.2108 6.352-16.1696z" fill="#21bf73"/><path d="m145.991 44.9521c-.012.0175-11.427-3.9183-18.215-6.8236s-13.121-6.9342-13.121-6.9342l-.883.2823s4.972 3.4483 13.4 7.0368c8.425 3.5737 18.476 7.251 18.476 7.251z" fill="#fff"/><path d="m108.11 13.3934c-.412 1.1923.223 2.5013 1.431 2.9105 1.192.412 2.501-.223 2.91-1.4301.412-1.1923-.223-2.5012-1.43-2.9105-1.205-.3944-2.499.2379-2.911 1.4301z" fill="#163a5f"/><path d="m109.895 13.2693c-.191.5551.1 1.1455.655 1.336.555.1904 1.145-.1002 1.336-.6552.19-.5551-.1-1.1455-.655-1.336-.556-.1904-1.143.115-1.336.6552z" fill="#fff"/><path d="m118.606 16.99c-.412 1.1922.223 2.5012 1.43 2.9105 1.193.412 2.502-.2231 2.911-1.4301.412-1.1923-.223-2.5013-1.43-2.9105-1.205-.3945-2.499.2378-2.911 1.4301z" fill="#163a5f"/><path d="m120.391 16.8663c-.191.555.1 1.1455.655 1.3359.555.1905 1.145-.1001 1.336-.6552.19-.555-.1-1.1455-.656-1.3359-.537-.1783-1.142.1149-1.335.6552z" fill="#fff"/><path d="m143.39 38.1959c-.118.6184-.424 1.2098-.864 1.6568-.232.241-.605.4617-.871.2648-.247-.1848-.208-.5594-.111-.868.126-.4055.251-.811.392-1.2192.394-1.0359 1.724-1.2154 1.454.1656z" fill="#163a5f"/><path d="m146.655 39.3198c-.117.6184-.424 1.2097-.863 1.6568-.232.241-.606.4617-.871.2647-.248-.1848-.209-.5593-.111-.8679.125-.4055.251-.811.392-1.2192.391-1.0508 1.724-1.2155 1.453.1656z" fill="#163a5f"/><path d="m112.19 82.0671c-.012.5426 7.467 14.1373 9.932 20.3269 2.45 6.19 4.371 9.681 4.036 10.057-.336.375-8.38 4.603-8.38 4.603s-3.132-6.435-4.454-7.754c-3.448-3.448-8.255-.28-8.255-.28z" fill="#21bf73"/><path d="m126.142 112.45 8.121 1.45s-4.572 2.094-4.299 2.364c.274.255 2.4 3.878 2.02 3.934-.38.057-6.306-.317-6.306-.317l.422 3.009-8.337-5.837z" fill="#21bf73"/></svg>

<svg width="163" height="145" viewBox="0 0 163 145" fill="none" xmlns="http://www.w3.org/2000/svg">
<path d="M54.5328 91.6987C54.1446 91.7537 53.7592 91.8234 53.4504 92.0631C53.0216 92.401 52.8864 93.0072 52.9978 93.5383C53.0944 94.072 53.3932 94.5385 53.7041 94.9875C54.7352 96.4544 55.9725 97.7922 57.3582 98.9346C57.233 98.8348 60.9502 92.8951 60.5536 91.8032C59.9889 90.2059 55.739 91.511 54.5328 91.6987Z" fill="#50AF42"/>
<path d="M44.9851 102.139C44.6821 101.903 44.3616 101.654 43.9843 101.6C43.4481 101.514 42.9101 101.841 42.5917 102.281C42.2734 102.721 42.1422 103.266 42.0232 103.793C41.6539 105.559 41.5205 107.359 41.6322 109.161C41.6175 108.995 48.4952 107.658 49.0256 106.613C49.7922 105.096 45.9467 102.883 44.9851 102.139Z" fill="#50AF42"/>
<path d="M33.6303 105.893C33.5093 105.563 33.3708 105.221 33.1324 105.004C32.8012 104.696 32.3255 104.69 31.9642 104.894C31.6029 105.097 31.3156 105.455 31.0606 105.823C30.2107 107.048 29.5089 108.415 28.9795 109.889C29.0321 109.757 34.1323 111.881 34.8375 111.294C35.8663 110.465 34.0163 106.926 33.6303 105.893Z" fill="#50AF42"/>
<path d="M22.656 107.436C22.535 107.106 22.3965 106.763 22.1581 106.546C21.8269 106.239 21.3512 106.233 20.9899 106.436C20.6286 106.639 20.3413 106.997 20.0863 107.365C19.2363 108.591 18.5345 109.958 18.0051 111.432C18.0578 111.3 23.1579 113.423 23.8632 112.837C24.9068 112.005 23.0568 108.466 22.656 107.436Z" fill="#50AF42"/>
<path d="M60.8825 91.5905C60.8825 91.5905 52.0451 103.755 44.0413 106.229C32.6167 109.767 19.3888 108.333 17.7275 108.037C16.0689 107.755 13.3302 110.134 17.499 112.442C22.8559 115.392 33.6576 120.847 47.1018 117.893C59.178 115.248 67.7854 109.342 67.7854 109.342L60.8825 91.5905Z" fill="#50AF42"/>
<path d="M112.983 8.92854C111.522 8.30481 109.93 7.96532 108.344 7.91555C107.945 7.91119 107.516 7.91218 107.162 7.73133C106.808 7.55048 106.529 7.11095 106.693 6.74455C106.803 6.51016 107.039 6.37559 107.278 6.25585C109.018 5.46622 111.031 5.59179 112.928 5.9221C116.01 6.45143 116.384 10.3799 112.983 8.92854Z" fill="#21BF73"/>
<path d="M121.867 11.7454C123.306 12.4189 124.627 13.374 125.711 14.5405C125.978 14.8291 126.265 15.1447 126.628 15.2932C127.007 15.439 127.511 15.3478 127.674 14.9814C127.785 14.747 127.719 14.468 127.644 14.2214C127.083 12.3936 125.634 10.987 124.146 9.78647C121.709 7.82385 118.519 10.162 121.867 11.7454Z" fill="#21BF73"/>
<path d="M117.642 67.8285C115.413 76.071 113.04 84.6153 106.972 90.9346C104.562 93.4378 101.434 95.6116 97.6565 95.9738C95.6256 96.173 93.5452 95.8452 91.5364 95.3208C86.3629 93.9758 81.2311 91.0004 79.1203 86.5289C78.1786 84.5405 77.8987 82.4017 77.8397 80.2995C77.7967 78.4546 77.91 76.6274 78.2119 74.8274C78.6791 71.9103 79.5963 69.1108 80.496 66.2992C83.168 58.0529 85.84 49.8066 89.0846 41.763C90.9789 37.0871 93.5186 30.9012 95.6661 24.6637C96.1875 23.1454 99.9413 27.1358 101.634 26.8447C103.119 26.5912 104.7 26.7798 106.232 27.0384C109.906 27.6288 113.587 28.509 116.88 30.2095C120.074 31.8669 122.205 34.0839 123.932 36.9408C125.783 39.9742 124.524 42.2385 123.683 45.3763C121.657 52.8778 119.64 60.3471 117.642 67.8285Z" fill="#21BF73"/>
<path d="M99.3789 36.2097C99.1989 35.5533 99.2143 34.7083 99.7887 34.3288C100.267 34.0125 100.906 34.1572 101.458 34.3328C105.597 35.7119 109.133 38.5015 113.181 40.142C115.329 41.0088 117.598 41.5321 119.852 42.0581C121.114 42.3502 122.987 42.5471 124.554 42.9984C124.323 43.8364 124.02 44.7026 123.763 45.6524C123.25 47.5521 122.748 49.4342 122.235 51.3339C120.716 51.4863 119.188 50.9973 117.754 50.4301C111.865 48.0969 106.463 44.558 101.991 40.0698C100.871 38.9558 99.7914 37.7273 99.3789 36.2097Z" fill="#1CA362"/>
<path d="M123.783 15.8999C122.39 13.8707 119.69 12.8282 117.283 13.4017C115.947 13.72 114.737 14.4751 113.75 15.4499C112.97 16.2188 112.297 17.1521 112.076 18.2178C111.93 18.9333 111.99 19.6879 112.151 20.409C112.595 22.3498 113.813 24.0891 115.48 25.1806C117.98 26.8105 122.602 27.306 124.118 24.0919C125.176 21.8181 125.217 17.983 123.783 15.8999Z" fill="#1CA362"/>
<path d="M100.993 13.1501C103.016 10.4566 107.098 8.64599 110.735 9.19733C113.033 9.54682 115.172 11.043 116.173 13.0206C116.886 14.4226 116.894 16.2432 116.401 18.0013C119.959 20.0673 122.374 21.9881 122.374 21.9881C122.374 21.9881 133.647 30.1296 140.37 34.9605C141.129 34.3331 142.557 34.2736 145.027 35.3118C146.203 35.8033 146.989 36.5949 147.522 37.509C148.539 39.2387 144.915 48.6525 143.458 49.3144C140.701 50.5789 114.396 43.5507 107.847 40.9542C101.299 38.3577 94.5991 34.5024 94.641 29.3197C94.6599 25.8713 98.7723 16.1089 100.993 13.1501Z" fill="#21BF73"/>
<path d="M145.991 44.9521C145.979 44.9696 134.564 41.0338 127.776 38.1285C120.988 35.2232 114.655 31.1943 114.655 31.1943L113.772 31.4766C113.772 31.4766 118.744 34.9249 127.172 38.5134C135.597 42.0871 145.648 45.7644 145.648 45.7644L145.991 44.9521Z" fill="white"/>
<path d="M108.11 13.3934C107.698 14.5857 108.333 15.8947 109.541 16.3039C110.733 16.7159 112.042 16.0809 112.451 14.8738C112.863 13.6815 112.228 12.3726 111.021 11.9633C109.816 11.5689 108.522 12.2012 108.11 13.3934Z" fill="#163A5F"/>
<path d="M109.895 13.2693C109.704 13.8244 109.995 14.4148 110.55 14.6053C111.105 14.7957 111.695 14.5051 111.886 13.9501C112.076 13.395 111.786 12.8046 111.231 12.6141C110.675 12.4237 110.088 12.7291 109.895 13.2693Z" fill="white"/>
<path d="M118.606 16.99C118.194 18.1822 118.829 19.4912 120.036 19.9005C121.229 20.3125 122.538 19.6774 122.947 18.4704C123.359 17.2781 122.724 15.9691 121.517 15.5599C120.312 15.1654 119.018 15.7977 118.606 16.99Z" fill="#163A5F"/>
<path d="M120.391 16.8663C120.2 17.4213 120.491 18.0118 121.046 18.2022C121.601 18.3927 122.191 18.1021 122.382 17.547C122.572 16.992 122.282 16.4015 121.726 16.2111C121.189 16.0328 120.584 16.326 120.391 16.8663Z" fill="white"/>
<path d="M143.39 38.1959C143.272 38.8143 142.966 39.4057 142.526 39.8527C142.294 40.0937 141.921 40.3144 141.655 40.1175C141.408 39.9327 141.447 39.5581 141.544 39.2495C141.67 38.844 141.795 38.4385 141.936 38.0303C142.33 36.9944 143.66 36.8149 143.39 38.1959Z" fill="#163A5F"/>
<path d="M146.655 39.3198C146.538 39.9382 146.231 40.5295 145.792 40.9766C145.56 41.2176 145.186 41.4383 144.921 41.2413C144.673 41.0565 144.712 40.682 144.81 40.3734C144.935 39.9679 145.061 39.5624 145.202 39.1542C145.593 38.1034 146.926 37.9387 146.655 39.3198Z" fill="#163A5F"/>
<path d="M112.19 82.0671C112.178 82.6097 119.657 96.2044 122.122 102.394C124.572 108.584 126.493 112.075 126.158 112.451C125.822 112.826 117.778 117.054 117.778 117.054C117.778 117.054 114.646 110.619 113.324 109.3C109.876 105.852 105.069 109.02 105.069 109.02L112.19 82.0671Z" fill="#21BF73"/>
<path d="M126.142 112.45L134.263 113.9C134.263 113.9 129.691 115.994 129.964 116.264C130.238 116.519 132.364 120.142 131.984 120.198C131.604 120.255 125.678 119.881 125.678 119.881L126.1 122.89L117.763 117.053L126.142 112.45Z" fill="#21BF73"/>
</svg>
